X:1
T: "An Bon\'as" (The Bonus)
C:Slip Jig composed by Davy Rogers
L:1/8
Q:140
K:Bb
M:9/8
F |: D2G GBd cAG | D2G GAG FGA | B2A AGF GBc | d2_d =dcA GFE |
D2G GBd cAG | D2G GAG FGA | B2A AGF GBc | d2_d =dcA G2A |
B2G cGA BAB | G2c Bcd edc | e2d dcB Bcd | c2F  FGA G2A |
B2G cGA BAB | G2c Bcd edc | e2d dcB Bcd | c2F FGA G2 :||



